packages/sources/icons/src/vitamix/focus-line.svg

<svg width="16" height="16" viewBox="0 0 16 16" xmlns="http://www.w3.org/2000/svg"><path fill-rule="evenodd" clip-rule="evenodd" d="M8.66669 0.666668L8.66735 2.708C11.0839 3.01352 12.9868 4.91673 13.292 7.33333H15.3334V8.66667L13.292 8.66733C12.9866 11.0837 11.0837 12.9865 8.66735 13.292L8.66669 15.3333H7.33335V13.292C4.91675 12.9868 3.01354 11.0839 2.70802 8.66733L0.666687 8.66667V7.33333H2.70802C3.01326 4.91651 4.91653 3.01324 7.33335 2.708V0.666668H8.66669ZM8.00002 4C5.79088 4 4.00002 5.79086 4.00002 8C4.00002 10.2091 5.79088 12 8.00002 12C10.2092 12 12 10.2091 12 8C12 5.79086 10.2092 4 8.00002 4ZM9.33335 8C9.33335 7.26362 8.7364 6.66667 8.00002 6.66667C7.26364 6.66667 6.66669 7.26362 6.66669 8C6.66669 8.73638 7.26364 9.33333 8.00002 9.33333C8.7364 9.33333 9.33335 8.73638 9.33335 8Z"/></svg>

<svg width="16" height="16" xmlns="http://www.w3.org/2000/svg"><path fill-rule="evenodd" clip-rule="evenodd" d="M8.667.667v2.041a5.336 5.336 0 0 1 4.625 4.625h2.041v1.334h-2.041a5.336 5.336 0 0 1-4.625 4.625v2.041H7.333v-2.041a5.336 5.336 0 0 1-4.625-4.625H.667V7.333h2.041a5.336 5.336 0 0 1 4.625-4.625V.667h1.334ZM8 4a4 4 0 1 0 0 8 4 4 0 0 0 0-8Zm1.333 4a1.333 1.333 0 1 0-2.666 0 1.333 1.333 0 0 0 2.666 0Z"/></svg>
